X:191
T:La grande gigue simple
Z:robin.beech@mcgill.ca
S:Gaston Nolet - SPTDQ 2012
M:3/4
L:1/16
K:D
A,DDE FDED EGFD | A,DDE FDEB AGFD | A,DDE FDED EGFD |1 A,DDE FDEB AGFD  :|2 
A,DDE FDEB AGFA || dfed ceAc e2ec | dfed cedB BAFA | dfed ceAc e2ec | defg afdB AAFA |
dfed ceAc e2ec | dfed cedB BAFA | dfed ceAc e2ec | defg afdf gfec | 
defg afdf gfec | defg afdf gfec | defg afdf gfec | defg afdB AGFD |]

